img/svg/facebook.svg

<svg width="24" height="24" viewBox="0 0 24 24" fill="none" xmlns="http://www.w3.org/2000/svg">
<path d="M23 12C23 5.92486 18.0751 1 12 1C5.92486 1 1 5.92486 1 12C1 17.4903 5.02252 22.0412 10.2812 22.8664V15.1797H7.48828V12H10.2812V9.57656C10.2812 6.81969 11.9235 5.29688 14.4361 5.29688C15.6392 5.29688 16.8984 5.51172 16.8984 5.51172V8.21875H15.5114C14.145 8.21875 13.7188 9.06674 13.7188 9.9375V12H16.7695L16.2818 15.1797H13.7188V22.8664C18.9775 22.0412 23 17.4903 23 12Z" fill="#101010"/>
</svg>

<svg width="24" height="24" fill="none" xmlns="http://www.w3.org/2000/svg"><path d="M23 12c0-6.075-4.925-11-11-11S1 5.925 1 12c0 5.49 4.023 10.041 9.281 10.866V15.18H7.488V12h2.793V9.577c0-2.757 1.643-4.28 4.155-4.28 1.203 0 2.462.215 2.462.215v2.707h-1.387c-1.366 0-1.792.848-1.792 1.719V12h3.05l-.487 3.18h-2.563v7.686C18.977 22.041 23 17.49 23 12z" fill="#101010"/></svg>
